X: 1
T:Idle Ayes
M:C
L:1/8
Q:80
C:Michael Grey
S:Reel
K:HP
|: {g}f2{g}fd{g}efge|
{g}fe{g}df{g}ed{g}B{d}A|
{g}Af{e}fd{g}efge|  !
{g}fd{G}df{gef}e2{Gdc}d2:| [|
{ag}a2{fg}fe{g}dfaf|
{a}gafd{g}efge|  !
{ag}a2{fg}fe{g}dfaf|
{a}ga{g}af{gef}e2{Gdc}d2{ag}a2{fg}fe{g}dfaf|
{a}gafd{g}efge|  !
{gfg}f2{ag}a2dfaf|
{a}ga{g}af{gef}e2{Gdc}d2|]
